X: 20742
T: Johnny Going To Ceili
R: reel
M: 4/4
K: Gmajor
|~B3A GBdB|cBAG FGAF|DG~G2 ~A3B|cBAG FGAF|
DG~G2 ~B3A|GBdB c2Bc|dBcA BcAG|FGAc BGG||
B|dg~g2 bg~g2|defg af (3gfe|dg~g2 bgge|fdcA BGGB|
dg~g2 bgaf|defg af (3gfe|dg~g2 dg~g2|~a3g fdcA||

